X: 4231
T: Banff Castle.   a Reel.
%R: reel
B: Niel Gow & Sons "Complete Repository" v.4 p.23 #1
Z: 2021 John Chambers <jc:trillian.mit.edu>
M: C|
L: 1/8
K: F
% - - - - - - - - - -
% Voice 1 formatted for compactness and proofreading.
V: 1 staves=2
[|\
TF>GAF CFAF | GABc {Bc}d2df | cf2a gefc | dfcA TG>FDG || TF>GAF CFAF |
GABc {Bc}d2df | cf2a gefc | dfcA F/F/F F2 |]| fcfa Tgefc | Tdcdf g/g/g Tg2 | fcfa gefc |
dfcA GABd || cAfa gefc | ~dcdf g/g/g Tg>a | fa-af eg-ge | .f(dTc)A F/F/F F2 |]
% - - - - - - - - - -
% Voice 2 preserves the book's staff layout.
V: 2 clef=bass middle=d
[|\
F2f2 f2f2 | g2a2 b2b2 | a2f2 c'2a2 | b2a2 c2B2 || A2F2 f2f2 |
g2a2 b2b2 | a2f2 e2f2 | B2c2 F2F2 |]| f2f2 e2f2 | b2a2 g2e2 | f2a2 b2a2 |
b2af e2c2 || f2f2 e2f2 | b2a2 g2e2 | f2F2 c2C2 | B2c2 F2F2 |]


